assets/images/cards/jcb.svg

<?xml version="1.0" encoding="UTF-8" standalone="no"?>
<svg viewBox="0 0 750 471" version="1.1" xmlns="http://www.w3.org/2000/svg" xmlns:xlink="http://www.w3.org/1999/xlink" xmlns:sketch="http://www.bohemiancoding.com/sketch/ns" preserveAspectRatio="xMidYMid meet">
    <!-- Generator: Sketch 3.3.1 (12005) - http://www.bohemiancoding.com/sketch -->
    <title>Slice 1</title>
    <desc>Created with Sketch.</desc>
    <defs>
        <linearGradient x1="0.031607858%" y1="49.9998574%" x2="99.9743153%" y2="49.9998574%" id="linearGradient-1">
            <stop stop-color="#007B40" offset="0%"></stop>
            <stop stop-color="#55B330" offset="100%"></stop>
        </linearGradient>
        <linearGradient x1="0.471693172%" y1="49.999826%" x2="99.9860086%" y2="49.999826%" id="linearGradient-2">
            <stop stop-color="#1D2970" offset="0%"></stop>
            <stop stop-color="#006DBA" offset="100%"></stop>
        </linearGradient>
        <linearGradient x1="0.113880772%" y1="50.0008964%" x2="99.9860003%" y2="50.0008964%" id="linearGradient-3">
            <stop stop-color="#6E2B2F" offset="0%"></stop>
            <stop stop-color="#E30138" offset="100%"></stop>
        </linearGradient>
    </defs>
    <g id="Page-1" stroke="none" stroke-width="1" fill="none" fill-rule="evenodd" sketch:type="MSPage">
        <g id="jcb" sketch:type="MSLayerGroup">
            <rect id="Rectangle-1" fill="#0E4C96" sketch:type="MSShapeGroup" x="0" y="0" width="750" height="471" rx="40"></rect>
            <path d="M617.243183,346.766281 C617.243183,388.380887 583.514892,422.125974 541.88349,422.125974 L132.756823,422.125974 L132.756823,124.244916 C132.756823,82.6186826 166.489851,48.8744567 208.121683,48.8744567 L617.242752,48.874026 L617.242752,346.766281 L617.243183,346.766281 L617.243183,346.766281 Z" id="path3494" fill="#FFFFFF" sketch:type="MSShapeGroup"></path>
            <path d="M483.858874,242.044797 C495.542699,242.298285 507.296188,241.528806 518.936004,242.444883 C530.723244,244.645678 533.563915,262.487874 523.09234,268.332511 C515.950746,272.182115 507.459496,269.764696 499.713328,270.446208 L483.858874,270.446208 L483.858874,242.044797 L483.858874,242.044797 Z M525.691826,209.900487 C528.288491,219.064679 519.453903,227.292118 510.625917,226.030566 L483.858874,226.030566 C484.043758,217.388441 483.491345,208.008973 484.131053,199.821663 C494.854942,200.123386 505.679576,199.205849 516.340394,200.301853 C520.921799,201.451558 524.753935,205.217712 525.691826,209.900487 L525.691826,209.900487 Z M590.120412,73.9972254 C590.617872,91.498454 590.191471,109.92365 590.33359,127.780192 C590.299137,200.376358 590.405942,272.974174 590.278896,345.569303 C589.81042,372.776592 565.696524,396.413678 538.678749,396.956694 C511.63292,397.068451 484.584297,396.972628 457.537396,397.004497 L457.537396,287.253291 C487.007,287.099803 516.49604,287.561 545.953521,287.021594 C559.62072,286.162769 574.586027,277.145695 575.22328,262.107374 C576.833661,247.005483 562.592128,236.557185 549.071096,234.905684 C543.872773,234.770542 544.027132,233.390846 549.071096,232.788972 C561.96307,230.002483 572.090675,216.655787 568.296786,203.290229 C565.06052,189.232374 549.523839,183.79142 536.600366,183.817768 C510.248548,183.638612 483.891299,183.792359 457.537396,183.74111 C457.708585,163.252408 457.182916,142.740653 457.82271,122.267364 C459.910361,95.5513766 484.628603,73.5195319 511.269759,73.997656 C537.553166,73.9973692 563.837737,73.9982301 590.120412,73.9972254 L590.120412,73.9972254 Z" id="path3496" fill="url(#linearGradient-1)" sketch:type="MSShapeGroup"></path>
            <path d="M159.740429,125.040498 C160.413689,97.8766592 184.628619,74.4290299 211.614797,74.0325398 C238.559493,73.9499686 265.506204,74.0209119 292.451671,73.9972254 C292.37764,164.882488 292.599905,255.773672 292.340301,346.655222 C291.302298,373.488802 267.350548,396.488661 240.661356,396.962292 C213.665015,397.060957 186.666275,396.976074 159.669012,397.004497 L159.669012,283.550875 C185.891623,289.745491 213.391138,292.382518 240.142406,288.272242 C256.134509,285.697368 273.629935,277.848026 279.044261,261.257567 C283.030122,247.066267 280.785723,232.131602 281.378027,217.566465 L281.378027,183.741541 L235.081246,183.741541 C234.873106,206.112145 235.507258,228.522447 234.746146,250.867107 C233.49785,264.601214 219.900147,273.326996 206.946428,272.861801 C190.879747,273.030535 159.04755,261.221796 159.04755,261.221796 C158.967492,219.3048 159.514314,166.814385 159.740429,125.040498 L159.740429,125.040498 Z" id="path3498" fill="url(#linearGradient-2)" sketch:type="MSShapeGroup"></path>
            <path d="M309.719995,197.390136 C307.285788,197.90738 309.229141,189.089459 308.606298,185.743964 C308.772233,164.593637 308.260045,143.420951 308.889718,122.285827 C310.972541,95.4570827 335.881262,73.3701105 362.628748,73.997656 L441.39456,73.997656 C441.320658,164.882346 441.542493,255.77294 441.283406,346.653934 C440.244412,373.488027 416.291344,396.487102 389.602087,396.962292 C362.604605,397.061991 335.604707,396.976504 308.606298,397.004928 L308.606298,272.707624 C327.04641,287.835846 352.105738,290.192248 375.077953,290.233484 C392.39501,290.227455 409.611861,287.557865 426.428143,283.562934 L426.428143,260.790297 C407.474658,270.236609 385.194808,276.235815 364.184745,270.807966 C349.529051,267.157367 338.89089,252.996683 339.128513,237.872204 C337.43001,222.143684 346.652631,205.536885 362.110237,200.860855 C381.300923,194.852545 402.217787,199.448454 420.206344,207.258795 C424.060526,209.27695 427.97066,211.780342 426.428143,205.338044 L426.428143,187.438358 C396.343581,180.280951 364.326644,177.646405 334.099438,185.433619 C325.351193,187.901774 316.82819,191.644647 309.719995,197.390136 L309.719995,197.390136 Z" id="path3500" fill="url(#linearGradient-3)" sketch:type="MSShapeGroup"></path>
        </g>
    </g>
</svg>

<svg viewBox="0 0 750 471" xmlns="http://www.w3.org/2000/svg"><defs><linearGradient x1=".03%" y1="50%" x2="99.97%" y2="50%" id="a"><stop stop-color="#007B40" offset="0%"/><stop stop-color="#55B330" offset="100%"/></linearGradient><linearGradient x1=".47%" y1="50%" x2="99.99%" y2="50%" id="b"><stop stop-color="#1D2970" offset="0%"/><stop stop-color="#006DBA" offset="100%"/></linearGradient><linearGradient x1=".11%" y1="50%" x2="99.99%" y2="50%" id="c"><stop stop-color="#6E2B2F" offset="0%"/><stop stop-color="#E30138" offset="100%"/></linearGradient></defs><g fill="none" fill-rule="evenodd"><rect fill="#0E4C96" width="750" height="471" rx="40"/><path d="M617.24 346.77a75.36 75.36 0 01-75.36 75.36H132.76V124.24a75.36 75.36 0 0175.36-75.37h409.12v297.9z" fill="#FFF"/><path d="M483.86 242.04c11.68.26 23.44-.51 35.08.4 11.78 2.2 14.62 20.05 4.15 25.9-7.14 3.84-15.63 1.42-23.38 2.1h-15.85v-28.4zm41.83-32.14c2.6 9.16-6.24 17.4-15.06 16.13h-26.77c.18-8.64-.37-18.02.27-26.2 10.72.3 21.55-.62 32.21.47a12.75 12.75 0 019.35 9.6zM590.12 74c.5 17.5.07 35.92.21 53.78-.03 72.6.08 145.2-.05 217.79-.47 27.2-24.58 50.84-51.6 51.39-27.05.1-54.1.01-81.14.04V287.25c29.47-.15 58.96.31 88.41-.23 13.67-.86 28.64-9.87 29.27-24.91 1.61-15.1-12.63-25.55-26.15-27.2-5.2-.14-5.04-1.52 0-2.12 12.9-2.79 23.02-16.13 19.23-29.5-3.24-14.06-18.78-19.5-31.7-19.47-26.35-.18-52.7-.03-79.06-.08.17-20.49-.36-41 .28-61.47 2.09-26.72 26.8-48.75 53.45-48.27h78.85z" fill="url(#a)"/><path d="M159.74 125.04c.67-27.16 24.89-50.61 51.87-51 26.95-.09 53.9-.02 80.84-.04-.07 90.88.15 181.77-.11 272.66-1.04 26.83-24.99 49.83-51.68 50.3-27 .1-54 .02-81 .04V283.55c26.23 6.2 53.73 8.83 80.48 4.72 16-2.57 33.49-10.42 38.9-27.01 3.99-14.2 1.75-29.13 2.34-43.7v-33.82h-46.3c-.2 22.37.43 44.78-.33 67.13-1.25 13.73-14.85 22.46-27.8 22-16.07.16-47.9-11.65-47.9-11.65-.08-41.92.46-94.4.69-136.18z" fill="url(#b)"/><path d="M309.72 197.39c-2.43.52-.5-8.3-1.11-11.65.16-21.15-.35-42.32.28-63.45 2.08-26.83 27-48.92 53.74-48.3h78.76c-.07 90.9.15 181.78-.1 272.66-1.05 26.84-25 49.84-51.69 50.31-27 .1-54 .02-81 .04V272.7c18.45 15.14 43.5 17.5 66.48 17.53 17.32 0 34.53-2.67 51.35-6.67V260.8c-18.96 9.45-41.24 15.45-62.25 10.02-14.65-3.65-25.29-17.81-25.05-32.94-1.7-15.73 7.52-32.33 22.98-37 19.2-6.02 40.1-1.42 58.1 6.39 3.85 2.02 7.76 4.52 6.22-1.92v-17.9c-30.09-7.16-62.1-9.8-92.33-2-8.75 2.46-17.27 6.2-24.38 11.95z" fill="url(#c)"/></g></svg>
